black/svg/E31F.svg

<svg id="emoji" viewBox="0 0 72 72" xmlns="http://www.w3.org/2000/svg">
  <g id="line">
    <g id="line-2">
      <path fill="none" stroke="#000" stroke-linecap="round" stroke-linejoin="round" stroke-width="2" d="m55.3981,8.06c-4.62-.8706-9.3392-1.0894-14.02-.65-.6785.0056-1.3045.3661-1.65.95-1.03,2.16-1.61,4.74-3.75,9.03-.96,1.91-1.92,2.87-1.92,4.78-.011,1.3344.3195,2.6494.96,3.82.26.58.54,1.23.82,1.95v.01"/>
      <line x1="36.8981" x2="36.8981" y1="30.9995" y2="30.9895" fill="none" stroke="#000" stroke-linecap="round" stroke-linejoin="round" stroke-width="2"/>
      <path fill="none" stroke="#000" stroke-linecap="round" stroke-linejoin="round" stroke-width="2" d="m36.9281,61c-.0303-.0016-.0608.0018-.09.01"/>
      <path fill="none" stroke="#000" stroke-linecap="round" stroke-linejoin="round" stroke-width="2" d="m47.5581,27.56c-.295-1.6231-.4887-3.2629-.58-4.91-.04-2.44,9.08-7.18,11.95-13.87"/>
      <path fill="none" stroke="#000" stroke-linecap="round" stroke-linejoin="round" stroke-width="2" d="m49.3281,60.69c-.0274.0294-.0576.0562-.09.08q0,.01-.01.02"/>
      <path id="Leg_Line_2" fill="none" stroke="#000" stroke-linecap="round" stroke-linejoin="round" stroke-width="2" d="m39.8012,19.2991c-1.311,1.6165-1.7026,3.5095-.9565,4.7826.2352.3928.5638.7214.9565.9566"/>
    </g>
    <path fill="none" stroke="#000" stroke-miterlimit="10" stroke-width="2" d="m47.0307,27.514h-9.7737c-1.4028,0-2.54,1.1372-2.54,2.54h0v21.4916c-7.1223,0-12.8961,0-12.8961,5.8813,0,5.2772,5.7738,5.8813,12.8961,5.8813h10.6924c2.2981,0,4.1611-1.863,4.1611-4.1611v-29.0934c-.0002-1.4026-1.1372-2.5396-2.5398-2.5397Z"/>
    <path fill="none" stroke="#000" stroke-linecap="round" stroke-linejoin="round" stroke-width="2" d="m26.2252,52.1093c.1615,4.4998,2.4643,8.6513,6.1962,11.1707h6.457s-6.6184-6.3452-5.8793-11.7312c-2.2733-.2144-4.5667-.0246-6.7739.5605Z"/>
    <polygon fill="none" stroke="#000" stroke-linecap="round" stroke-linejoin="round" stroke-width="2" points="34.717 51.546 49.57 56.039 49.57 48.156 39.351 45.084 34.717 43.691 34.717 51.546"/>
    <polygon fill="none" stroke="#000" stroke-linecap="round" stroke-linejoin="round" stroke-width="2" points="49.57 39.574 42.144 45.923 34.717 43.691 49.57 31.9 49.57 39.574"/>
    <path fill="none" stroke="#000" stroke-linecap="round" stroke-linejoin="round" stroke-width="2" d="m42.1439,27.514l4.8337,6.4443-4.8337,3.837-7.0252-9.1068c.4666-.7297,1.2722-1.1721,2.1383-1.1745h4.8869Z"/>
    <path fill="none" stroke="#000" stroke-linecap="round" stroke-linejoin="round" stroke-width="2" d="m35.9456,59.83l13.6249-3.79v3.1076s.3968,4.1611-5.1477,4.1611h-5.5444l-2.9328-3.4787Z"/>
    <polyline fill="none" stroke="#000" stroke-linecap="round" stroke-linejoin="round" stroke-width="2" points="25.886 48.613 23.572 44.756 26.479 44.222 23.571 39.377"/>
    <polyline fill="none" stroke="#000" stroke-linecap="round" stroke-linejoin="round" stroke-width="2" points="9.765 62.244 14.143 61.214 13.766 64.146 19.266 62.852"/>
    <polyline fill="none" stroke="#000" stroke-linecap="round" stroke-linejoin="round" stroke-width="2" points="19.275 52.668 14.943 51.459 15.199 54.404 9.756 52.885"/>
  </g>
</svg>

<svg id="emoji" viewBox="0 0 72 72" xmlns="http://www.w3.org/2000/svg">
  <g id="line">
    <g id="line-2">
      <path fill="none" stroke="#000" stroke-linecap="round" stroke-linejoin="round" stroke-width="2" d="M55.3981,8.06a50.3163,50.3163,0,0,0-14.02-.65,1.9359,1.9359,0,0,0-1.65.95c-1.03,2.16-1.61,4.74-3.75,9.03-.96,1.91-1.92,2.87-1.92,4.78a7.8233,7.8233,0,0,0,.96,3.82c.26.58.54,1.23.82,1.95v.01"/>
      <line x1="36.8981" x2="36.8981" y1="30.9995" y2="30.9895" fill="none" stroke="#000" stroke-linecap="round" stroke-linejoin="round" stroke-width="2"/>
      <path fill="none" stroke="#000" stroke-linecap="round" stroke-linejoin="round" stroke-width="2" d="M36.9281,61a.2769.2769,0,0,0-.09.01"/>
      <path fill="none" stroke="#000" stroke-linecap="round" stroke-linejoin="round" stroke-width="2" d="M47.5581,27.56a39.7673,39.7673,0,0,1-.58-4.91c-.04-2.44,9.08-7.18,11.95-13.87"/>
      <path fill="none" stroke="#000" stroke-linecap="round" stroke-linejoin="round" stroke-width="2" d="M49.3281,60.69a.647.647,0,0,1-.09.08c0,.01,0,.01-.01.02"/>
      <path id="Leg_Line_2" fill="none" stroke="#000" stroke-linecap="round" stroke-linejoin="round" stroke-width="2" d="M39.8012,19.2991c-1.311,1.6165-1.7026,3.5095-.9565,4.7826a2.78,2.78,0,0,0,.9565.9566"/>
    </g>
    <path fill="none" stroke="#000" stroke-miterlimit="10" stroke-width="2" d="M47.0307,27.514H37.257a2.54,2.54,0,0,0-2.54,2.54V51.5456c-7.1223,0-12.8961,0-12.8961,5.8813,0,5.2772,5.7738,5.8813,12.8961,5.8813H45.4094a4.1611,4.1611,0,0,0,4.1611-4.1611V30.0537A2.54,2.54,0,0,0,47.0307,27.514Z"/>
    <path fill="none" stroke="#000" stroke-linecap="round" stroke-linejoin="round" stroke-width="2" d="M26.2252,52.1093A14.0876,14.0876,0,0,0,32.4214,63.28h6.457S32.26,56.9348,32.9991,51.5488A19.3456,19.3456,0,0,0,26.2252,52.1093Z"/>
    <polygon fill="none" stroke="#000" stroke-linecap="round" stroke-linejoin="round" stroke-width="2" points="34.717 51.546 49.57 56.039 49.57 48.156 39.351 45.084 34.717 43.691 34.717 51.546"/>
    <polygon fill="none" stroke="#000" stroke-linecap="round" stroke-linejoin="round" stroke-width="2" points="49.57 39.574 42.144 45.923 34.717 43.691 49.57 31.9 49.57 39.574"/>
    <path fill="none" stroke="#000" stroke-linecap="round" stroke-linejoin="round" stroke-width="2" d="M42.1439,27.514l4.8337,6.4443-4.8337,3.837-7.0252-9.1068A2.5464,2.5464,0,0,1,37.257,27.514Z"/>
    <path fill="none" stroke="#000" stroke-linecap="round" stroke-linejoin="round" stroke-width="2" d="M35.9456,59.83l13.6249-3.79v3.1076s.3968,4.1611-5.1477,4.1611H38.8784Z"/>
    <polyline fill="none" stroke="#000" stroke-linecap="round" stroke-linejoin="round" stroke-width="2" points="25.886 48.613 23.572 44.756 26.479 44.222 23.571 39.377"/>
    <polyline fill="none" stroke="#000" stroke-linecap="round" stroke-linejoin="round" stroke-width="2" points="9.765 62.244 14.143 61.214 13.766 64.146 19.266 62.852"/>
    <polyline fill="none" stroke="#000" stroke-linecap="round" stroke-linejoin="round" stroke-width="2" points="19.275 52.668 14.943 51.459 15.199 54.404 9.756 52.885"/>
  </g>
</svg>
